src/icons/icon-c-logo.svg

<svg width="62" height="57" viewBox="0 0 62 57" fill="none" xmlns="http://www.w3.org/2000/svg">
<path d="M22.4357 56.8523C33.8773 56.8523 42.1229 50.3964 42.9539 40.8085H33.366C32.5989 45.4107 28.1885 48.5427 22.4357 48.5427C15.2128 48.5427 9.65184 43.557 9.65184 33.9691C9.65184 24.3812 15.2128 19.3315 22.4357 19.3315C28.0606 19.3315 32.4711 22.4636 33.1103 27.1297H43.1456C41.9312 17.4779 33.6856 11.0859 22.4357 11.0859C10.4828 11.0859 0 18.8841 0 33.9691C0 49.0541 10.291 56.8523 22.4357 56.8523Z" fill="#333333"/>
<path d="M52.0313 17.1943C57.2088 17.1943 61.0439 13.487 61.0439 8.62913C61.0439 3.70733 57.2088 0 52.0313 0C46.8538 0 43.1465 3.70733 43.1465 8.62913C43.1465 13.487 46.8538 17.1943 52.0313 17.1943ZM52.0313 11.889C50.0498 11.889 48.6436 10.5467 48.6436 8.62913C48.6436 6.64762 50.0498 5.36924 52.0313 5.36924C54.1406 5.36924 55.4829 6.64762 55.4829 8.62913C55.4829 10.5467 54.1406 11.889 52.0313 11.889Z" fill="#333333"/>
</svg>

<?xml version="1.0" encoding="utf-8"?>
<!-- Generator: Adobe Illustrator 25.4.1, SVG Export Plug-In . SVG Version: 6.00 Build 0)  -->
<svg version="1.1" id="Calque_1" xmlns="http://www.w3.org/2000/svg" xmlns:xlink="http://www.w3.org/1999/xlink" x="0px" y="0px"
	 viewBox="0 0 61 56.9" style="enable-background:new 0 0 61 56.9;" xml:space="preserve">
<path d="M22.4,56.9c11.4,0,19.7-6.5,20.5-16h-9.6c-0.8,4.6-5.2,7.7-10.9,7.7c-7.2,0-12.8-5-12.8-14.6s5.6-14.6,12.8-14.6
	c5.6,0,10,3.1,10.7,7.8h10c-1.2-9.7-9.5-16-20.7-16C10.5,11.1,0,18.9,0,34S10.3,56.9,22.4,56.9z"/>
<path d="M52,17.2c5.2,0,9-3.7,9-8.6C61,3.7,57.2,0,52,0s-8.9,3.7-8.9,8.6C43.1,13.5,46.9,17.2,52,17.2z M52,11.9
	c-2,0-3.4-1.3-3.4-3.3c0-2,1.4-3.3,3.4-3.3c2.1,0,3.5,1.3,3.5,3.3C55.5,10.5,54.1,11.9,52,11.9z"/>
</svg>
